{ "compressionlevel":-1,
 "height":8,
 "infinite":false,
 "layers":[
        {
         "id":3,
         "image":"..\/\uc708\ub3c4\uc6b0 \ud504\ub85c\uadf8\ub798\ubc0d\/\uacfc\uc81c \uc5d0\uc14b \ubaa8\uc74c\/Tall Forest Files\/Assets\/Layers\/back.png",
         "imageheight":240,
         "imagewidth":144,
         "name":"Image Layer 2",
         "opacity":1,
         "parallaxx":0.2,
         "repeatx":true,
         "type":"imagelayer",
         "visible":true,
         "x":0,
         "y":0
        }, 
        {
         "id":2,
         "image":"..\/\uc708\ub3c4\uc6b0 \ud504\ub85c\uadf8\ub798\ubc0d\/\uacfc\uc81c \uc5d0\uc14b \ubaa8\uc74c\/Tall Forest Files\/Assets\/Layers\/far.png",
         "imageheight":240,
         "imagewidth":176,
         "name":"Image Layer 1",
         "opacity":1,
         "parallaxx":0.5,
         "repeatx":true,
         "type":"imagelayer",
         "visible":true,
         "x":0,
         "y":0
        }, 
        {
         "id":4,
         "image":"..\/\uc708\ub3c4\uc6b0 \ud504\ub85c\uadf8\ub798\ubc0d\/\uacfc\uc81c \uc5d0\uc14b \ubaa8\uc74c\/Tall Forest Files\/Assets\/Layers\/middle.png",
         "imageheight":240,
         "imagewidth":192,
         "name":"Image Layer 3",
         "opacity":1,
         "repeatx":true,
         "type":"imagelayer",
         "visible":true,
         "x":0,
         "y":0
        }, 
        {
         "data":[0, 0, 0, 0, 0, 0, 0, 0, 0, 0, 0, 0, 0, 0, 0, 0,
            0, 0, 0, 0, 0, 0, 0, 0, 0, 0, 0, 0, 0, 0, 0, 0,
            0, 0, 0, 0, 0, 0, 0, 0, 0, 0, 0, 0, 0, 0, 0, 0,
            0, 0, 0, 0, 0, 0, 0, 0, 0, 0, 0, 0, 0, 0, 0, 0,
            0, 0, 0, 0, 0, 0, 0, 0, 0, 0, 0, 0, 0, 0, 0, 0,
            0, 0, 0, 0, 0, 0, 0, 0, 0, 0, 0, 0, 0, 0, 0, 0,
            8, 8, 8, 8, 8, 8, 8, 8, 8, 8, 8, 8, 8, 8, 8, 8,
            11, 11, 11, 11, 11, 11, 11, 11, 11, 11, 11, 11, 11, 11, 11, 11],
         "height":8,
         "id":1,
         "name":"Tile Layer 1",
         "opacity":1,
         "type":"tilelayer",
         "visible":true,
         "width":16,
         "x":0,
         "y":0
        }],
 "nextlayerid":5,
 "nextobjectid":1,
 "orientation":"orthogonal",
 "renderorder":"right-down",
 "tiledversion":"1.12.1",
 "tileheight":32,
 "tilesets":[
        {
         "firstgid":1,
         "source":"..\/tileset.tsx"
        }],
 "tilewidth":32,
 "type":"map",
 "version":"1.10",
 "width":16
}